X: 041273
T: Denis Murphy's #2
S: "Johnny O'Leary of Sliabh Luachra" (#248)
Z: B.Black
L: 1/8
M: 2/4
Q: 270
R: polka
K: A
AB|: c>e eA|dB/d/ fe|cA eA|cB c/B/A/B/|
cA/c/ ea|dB/d/ fe|ce B/c/d/B/|cA A2 :|
a2 a>f|ed/e/ a2|ce f/g/a/f/|ec BA|
a>f a/b/a/f/|ec/e/ a2|ce B/c/d/B/|cA A2 :|
